X: 7
T: Donald Blue
R: reel
M: 4/4
L: 1/8
K: Dmaj
dBAF AFAB|dBAF E2 D2|dBAF AFA2|BABc B2 A2:|
|:ABde fafd|fa af ed B2|ABde fafd|BABc B2 A2:|


Tune 1175	Setting 14445

